X: 1
T: Little Dutch Girl
R: reel
Z: 2010 John Chambers <jc:trillian.mit.edu>
F: http://www.tiompanalley.com/index_files/OTM/OldtimePDF/Dutch.pdf
F: http://www.youtube.com/watch?v=FuvHvvjtfgo (party in Enschede, the Netherlands)
F: http://www.youtube.com/watch?v=53ZQ_-27ZiI (Redwing)
F: http://www.youtube.com/watch?v=bFy1Fmtlgdc (Boiled Buzzards)
N: From David James' (19??-2018) "Tiompan Alley" collection.
M: C|
L: 1/8
K: A
|: "A"e2fg a2c2 | efed cAcd | e2fg a2c2 | "E7"e3f e4 \
|  "A"e2fg a2c2 | efed cAAB | cBAc "E7"BAG2 | "A"A3B A4 :|
|: "A"e2ef e2"D"d2 | "A"c3d c2AB | c2c2 "D"d2c2 | "E7"B3c B2Bc \
|  "D"d2de f2ff | "A"efed cAAB | cBAc "E7"BAG2 | "A"A3B A4 :|
